X: 86
T:Calon Lan
T:Pure Heart
M:3/4
L:1/8
Q:150
C:John Hughes
S:Welsh Songs - Y Lolfa
A:Wales
N:A Popular Hymn Tune
N:.
Z:brian_martin12345@yahoo.com
K:G
DG|B3G AB|G2D2EF|G3E cB|B2A2DG|B3G AB|G2E2GF/E/|D3G GF|G4||!
B>G|d3B AG|G2F2A>B|c3c BA|B4DD|E3E FF|G2A2GA|B3G A/G/F|G4||
